tools/download-figma-icons/icons/solid/efficiency.svg

<svg width="24" height="24" viewBox="0 0 24 24" fill="none" xmlns="http://www.w3.org/2000/svg">
<path fill-rule="evenodd" clip-rule="evenodd" d="M11.91 16.4998C11.4 16.4998 10.545 16.3873 10.0125 16.0348L13.2975 12.5099C13.5 12.2924 13.56 11.9774 13.44 11.6999C13.32 11.4299 13.0508 11.2499 12.75 11.2499H9.09756L12.2175 7.52243C14.5575 7.67243 16.41 9.62241 16.41 11.9999C16.41 14.4824 14.3933 16.4998 11.91 16.4998ZM4.2001 20.0623L5.94008 15.2548C6.02258 15.0223 5.98583 14.7673 5.84258 14.5724C5.70759 14.3699 5.47509 14.2499 5.23584 14.2499H2.07837C2.07837 14.2499 6.06758 7.49992 6.07508 7.49992H10.35L6.92332 11.5199C6.73583 11.7449 6.69758 12.0524 6.81757 12.3149C6.94507 12.5849 7.20757 12.7499 7.50007 12.7499H11.025L4.2001 20.0623ZM23.2498 8.99991H20.7074C20.5874 8.63991 20.4449 8.28742 20.2874 7.95742L22.0724 6.16494C22.3724 5.87244 22.3724 5.39995 22.0724 5.10745L18.8931 1.92748C18.5999 1.62748 18.1274 1.62748 17.8349 1.92748L16.0807 3.68246C15.7274 3.50246 15.3674 3.35247 14.9999 3.22497V0.749992C14.9999 0.337497 14.6624 0 14.2499 0H9.74998C9.33748 0 8.99999 0.337497 8.99999 0.749992V3.18747C8.61749 3.31497 8.24999 3.47246 7.89075 3.64496L6.16502 1.92748C5.87252 1.62748 5.40002 1.62748 5.10753 1.92748L1.92756 5.10745C1.62756 5.39995 1.62756 5.87244 1.92756 6.16494L3.95329 8.19742L0.105077 14.6174C-0.0299216 14.8423 -0.0374215 15.1348 0.0975771 15.3673C0.232576 15.6073 0.480073 15.7498 0.75007 15.7498H4.16254L1.54506 22.9948C1.42581 23.3323 1.55256 23.7073 1.86081 23.8873C1.98006 23.9623 2.11506 23.9998 2.25006 23.9998C2.4533 23.9998 2.65505 23.9173 2.7983 23.7598L6.63751 19.6498C7.41 20.4448 8.34749 20.6548 8.99999 20.7673V23.2498C8.99999 23.6623 9.33748 23.9998 9.74998 23.9998H14.2499C14.6624 23.9998 14.9999 23.6623 14.9999 23.2498V20.6698C15.3449 20.5498 15.6824 20.4073 16.0049 20.2498L17.8349 22.0723C18.1274 22.3723 18.5999 22.3723 18.8931 22.0723L22.0724 18.8923C22.3724 18.5998 22.3724 18.1273 22.0724 17.8348L20.2499 16.0048C20.4074 15.6823 20.5506 15.3448 20.6699 14.9998H23.2498C23.6623 14.9998 23.9998 14.6624 23.9998 14.2499V9.7499C23.9998 9.3374 23.6623 8.99991 23.2498 8.99991Z" fill="black"/>
</svg>

<svg xmlns="http://www.w3.org/2000/svg" width="24" height="24" fill="none" viewBox="0 0 24 24"><path fill="currentColor" fill-rule="evenodd" d="M11.91 16.5c-.51 0-1.365-.113-1.898-.465l3.285-3.525a.75.75 0 0 0 .143-.81.76.76 0 0 0-.69-.45H9.098l3.12-3.728c2.34.15 4.192 2.1 4.192 4.478 0 2.482-2.017 4.5-4.5 4.5M4.2 20.062l1.74-4.807a.74.74 0 0 0-.097-.683.73.73 0 0 0-.607-.322H2.078S6.068 7.5 6.075 7.5h4.275l-3.427 4.02a.75.75 0 0 0 .577 1.23h3.525zM23.25 9h-2.543a9 9 0 0 0-.42-1.043l1.785-1.792c.3-.293.3-.765 0-1.058l-3.179-3.18a.735.735 0 0 0-1.058 0L16.08 3.682A8.5 8.5 0 0 0 15 3.225V.75a.75.75 0 0 0-.75-.75h-4.5A.75.75 0 0 0 9 .75v2.437c-.383.128-.75.285-1.11.458L6.166 1.927a.734.734 0 0 0-1.057 0l-3.18 3.18c-.3.293-.3.765 0 1.058l2.025 2.032-3.848 6.42a.75.75 0 0 0-.007.75c.135.24.382.383.652.383h3.413l-2.618 7.245a.74.74 0 0 0 .316.892.74.74 0 0 0 .937-.128l3.84-4.11c.772.796 1.71 1.006 2.362 1.118v2.483c0 .412.337.75.75.75h4.5c.412 0 .75-.338.75-.75v-2.58c.345-.12.682-.263 1.005-.42l1.83 1.822c.292.3.765.3 1.058 0l3.18-3.18c.3-.292.3-.765 0-1.057l-1.823-1.83c.157-.323.3-.66.42-1.005h2.58c.412 0 .75-.338.75-.75v-4.5a.75.75 0 0 0-.75-.75" clip-rule="evenodd"/></svg>
